X:1
T:Title
%%score { ( 1 3 ) | ( 2 4 5 ) }
L:1/8
Q:1/4=100
M:4/4
K:Eb
V:1 treble nm="Grand Piano"
V:3 treble 
V:2 bass 
V:4 bass 
V:5 bass 
V:1
 G>G G>[FA] [GB]>[Ac] [GB]>G | E2 F2 G4 | [FA]>[FA] [FA]>[EG] [EG]3 [DF] | [GB]2 [FA]2 G4 | %4
w: Powell~G.~Fithian * * * * * * *||||
 G>G G>[FA] [GB]>[Ac] [GB]>[EG] | [Ge]2 [Bd]2 c4 | F>G =A>e d2 c2 | %7
w: |||
[M:9/8] B2- [EB]- [EB-] [FB]2- [FB] z z |[M:4/4] [EGB]4- [EGB]>[Ac] [EGB]>G | %9
w: ||
 [FA]2 [B,DA]2 [B,DA]4 | [DAc]4- [DAc]>[Bd] [B,Ac]>[FA] | [B,FA]2 G2 G4 | %12
w: |||
 G>G G>[FA] [GB]>[Ac] [GB]>[EG] | [Ge]2 d2 c4 | [GB]>[GB] [_G=A]>[=GB] [_Ac]2 d-[Ad] | %15
w: |||
[M:9/8] e2- [Ae]- [Ae-] [Ge]2- [Ge] z z |] %16
w: |
V:2
 [E,B,E]>[E,B,E] [E,B,E]>[E,B,] [E,E]>[E,E] [E,E]>[E,B,E] | [G,B,]2 [B,D]2 [E,B,E]4 | %2
 [B,,B,]>[B,,B,] [B,,B,]>[B,,B,] [B,,B,]3 [B,,B,] | [B,,B,]2 [B,,B,]2 [E,B,E]4 | %4
 [E,B,E]>[E,B,E] [E,B,E]>[E,B,] [E,E]>[E,E] [E,E]>[E,B,] | [E,B,]2[K:treble] [G,E]2 [A,EA]4 | %6
 [F,=A,]>[F,B,F] [F,CF]>[F,G] [F,G,F]2 [F,A,E]2 |[M:9/8] z2 G,- G, A,2- A, z z | %8
[M:4/4] z4 B,2 B,2 | z2 z z/ C/- C/ z/ z z2 | B,>B,, D,>F, B,>B, z z/ B,/ | E,2 [E,B,E]2 [E,B,E]4 | %12
 [E,B,E]>[E,B,E] [E,B,E]>[E,B,] [E,E]>[E,E] [E,E]>[E,B,] | [E,B,]2[K:treble] [G,=B,F]2 [A,E]4 | %14
 [B,,B,]>[B,,B,] [B,,B,]>[B,,B,] [B,,B,]2 [B,,B,]2 |[M:9/8] B,2 C- C B,2- B, z z |] %16
V:3
 x8 | x8 | x8 | x8 | x8 | x8 | x8 |[M:9/8] .[B,D]3 z3 z3 |[M:4/4] x8 | x8 | x8 | x8 | x8 | x8 | %14
 z4 z2 .F2 |[M:9/8] .G3 z3 z3 |] %16
V:4
 x8 | x8 | x8 | x8 | x8 | x2[K:treble] x6 | x8 |[M:9/8] B,,6- B,, z z | %8
[M:4/4] E,>B,, E,>G, z z/ E/ z z/ E/ | z z/ E/ z2 B,,4 | z4 z2 B,,2 | x8 | x8 | x2[K:treble] x6 | %14
 x8 |[M:9/8] E,6- E, z z |] %16
V:5
 x8 | x8 | x8 | x8 | x8 | x2[K:treble] x6 | x8 |[M:9/8] x9 |[M:4/4] x8 | B,2 B,,2 z4 | x8 | x8 | %12
 x8 | x2[K:treble] x6 | x8 |[M:9/8] x9 |] %16

